X: 1635
T: Sabâ Aranağme (Senginsemâî)
C: ?
O: Turkey
F: http://compmusic.upf.edu/node/140
N: saba--aranagme--senginsemai--1--
N: makam= saba
N: form= aranagme
N: usul= senginsemai = 6/4
M: 6/4
L: 1/16
K: C _2/4B _3/4d  
Q: 1/4=72
%%MIDI tuningsystem comma53
c4 d3c B4 c2BA A8  | g2_7/8a2 g2f2 e2f2 g_1/4bag g8  | \
w:  ARANAĞME  |   | 
c3d e2f2 g2_7/8a2 _1/4bc'ba g2f2 e2d2  | 
w:   | 
c2de d2c2 dcBA B2c2 A8  | c4 d3c B4 c2BA A8  | \
w:   |  ARANAĞME  | 
g2_7/8a2 g2f2 e2f2 g_1/4bag g8  | 
w:   | 
c3d e2f2 g2_7/8a2 _1/4bc'ba g2f2 e2d2  | \
w:   | 
c2de d2c2 dcBA B2c2 A8  | 
w:   | 
|


